X:472
T:Ye Banks and Braes
D:World of Arthur Spink
Z:Nigel Gatherer
R:waltz
M:3/4
L:1/4
K:G
D | G2G | AGA | BdB | AGA | B>AG | GED | D  EG    | A2 B/A/ |
    G2G | AGA | BdB | AGA | B>AG | GED | D  EG    | G2     ||
B | d2e | dBG | d2e | dBG | dBG  | dBG | e>d c/B/ | BA B/A/ |
    G2G | AGA | BdB | AGA | B>AG | GED | D  EG    | G2     |]
<end>
<start>
